picto/covered-car-park-framed.svg

<svg class="color-immutable" width="30" height="30" viewBox="0 0 30 30" fill="none" xmlns="http://www.w3.org/2000/svg"><path d="M30 0H0V30H30V0Z" fill="#2D327D"/><path d="M25.5 3C26.325 3 27 3.675 27 4.5V25.5C27 26.325 26.325 27 25.5 27H4.5C3.675 27 3 26.325 3 25.5V4.5C3 3.675 3.675 3 4.5 3H25.5ZM25.5 2.625H4.5C3.46613 2.625 2.625 3.46613 2.625 4.5V25.5C2.625 26.5339 3.46613 27.375 4.5 27.375H25.5C26.5339 27.375 27.375 26.5339 27.375 25.5V4.5C27.375 3.46613 26.5339 2.625 25.5 2.625Z" fill="white"/><path d="M24 15.4875V14.25L15 10.125L6 14.25V15.4875L15 11.3626L24 15.4876V15.4875Z" fill="white"/><path d="M19.2432 17.4377L19.2435 17.437L19.2432 17.4373V17.4374V17.4377Z" fill="white"/><path d="M12.0375 14.325H15.9419C16.5992 14.325 17.1166 14.3658 17.4937 14.4474C17.871 14.5291 18.2118 14.6735 18.5162 14.8808C19.3587 15.4456 19.7801 16.297 19.7801 17.4352C19.7801 18.4456 19.4316 19.2397 18.7346 19.8176C18.439 20.0647 18.1014 20.2423 17.7221 20.3503C17.3426 20.4585 16.8751 20.5125 16.3192 20.5125H14.1486V24H12.0375V14.325ZM14.1486 16.1118V18.8515H16.0346C16.5949 18.8515 16.9985 18.7522 17.2456 18.5536C17.55 18.3067 17.7022 17.9427 17.7022 17.4617C17.7022 16.9765 17.5257 16.6147 17.1728 16.3765C16.9169 16.2001 16.5 16.1118 15.9221 16.1118H14.1486Z" fill="white"/></svg>

<svg class="color-immutable" width="30" height="30" viewBox="0 0 30 30" fill="none" xmlns="http://www.w3.org/2000/svg"><g clip-path="url(#a)"><path d="M30 0H0v30h30V0Z" fill="#2D327D"/><path d="M25.5 3c.825 0 1.5.675 1.5 1.5v21c0 .825-.675 1.5-1.5 1.5h-21c-.825 0-1.5-.675-1.5-1.5v-21C3 3.675 3.675 3 4.5 3h21Zm0-.375h-21A1.877 1.877 0 0 0 2.625 4.5v21c0 1.034.841 1.875 1.875 1.875h21a1.877 1.877 0 0 0 1.875-1.875v-21A1.877 1.877 0 0 0 25.5 2.625Z" fill="#fff"/><path d="M24 15.488V14.25l-9-4.125-9 4.125v1.238l9-4.125 9 4.125ZM19.243 17.438v-.001Z" fill="#fff"/><path d="M12.037 14.325h3.905c.657 0 1.175.04 1.552.122a2.88 2.88 0 0 1 1.022.434c.843.565 1.264 1.416 1.264 2.554 0 1.01-.348 1.805-1.045 2.383a2.722 2.722 0 0 1-1.013.532c-.38.108-.847.162-1.403.162h-2.17V24h-2.111v-9.675Zm2.112 1.787v2.74h1.886c.56 0 .963-.1 1.21-.298.305-.247.457-.611.457-1.092 0-.485-.176-.847-.53-1.085-.255-.177-.672-.265-1.25-.265H14.15Z" fill="#fff"/></g><defs><clipPath id="a"><path fill="#fff" d="M0 0h30v30H0z"/></clipPath></defs></svg>
